; HEADER_BLOCK_START
; generated by MomentSlicer 1.6.9 on 2024-11-27 at 17:14:23
; total layer number: 100
; HEADER_BLOCK_END

; external perimeters extrusion width = 0.48mm
; perimeters extrusion width = 0.48mm
; infill extrusion width = 0.48mm
; solid infill extrusion width = 0.48mm
; top infill extrusion width = 0.48mm
; support material extrusion width = 0.48mm

; EXECUTABLE_BLOCK_START
M73 P0 R518
M201 X9000 Y9000 Z100 E10000
M203 X300 Y300 Z5 E25
M204 P800 R3000 T800
M205 X20.00 Y20.00 Z0.40 E5.00 ; sets the jerk limits, mm/sec
;TYPE:Custom
M140 S55 ; set bed temp
M190 S55 ; wait for bed temp
M104 S245 ; set extruder temp
M109 S245 ; wait for hotend temp
G28 ; home all axes
G92 E0
G1 X0 Y190 F4800
G1 Z0.2 F1000
G92 E0
G1 E10.0 F1800
G92 E0
G0 X0 Y20 E10.0 F1800
G0 X0 Y25 F4800
G90
G21
M82 ; use absolute distances for extrusion
G92 E0
; filament start gcode
M106 S0
;LAYER_CHANGE
;Z:0.3
;HEIGHT:0.3
;BEFORE_LAYER_CHANGE
;0.3

;AFTER_LAYER_CHANGE
;0.3
;FORCE Z MOVEMENT SPEED
G1 Z0.3 F200
G1 E-1 F1500
G92 E0
G1 X10 Y36.922 F9000
G1 Z.3 F180
G1 E1 F1500
;TYPE:Skirt
;WIDTH:0.48
G1 F1800
G1 X210 Y36.922 E10.84929
G1 X211.506 Y37.315 E10.92593
G1 X212.627 Y38.395 E11.00258
G1 X213.078 Y40 E11.08468
M73 P0 R517
G1 X213.078 Y180 E17.97918
G1 X212.685 Y181.506 E18.05582
G1 X211.605 Y182.627 E18.13247
G1 X210 Y183.078 E18.21457
G1 X10 Y183.078 E28.06385
G1 X8.494 Y182.685 E28.1405
G1 X7.373 Y181.605 E28.21715
G1 X6.922 Y180 E28.29924
G1 X6.922 Y40 E35.19374
G1 X7.315 Y38.494 E35.27039
G1 X8.395 Y37.373 E35.34704
G1 X9.961 Y36.933 E35.42716
G1 E34.72716 F1500
;WIPE_START
G1 F1800
G1 X10.961 Y36.933 E34.44216
;WIPE_END
G1 E34.42716 F1500
G92 E0
G1 X10 Y37.338 F9000
G1 E1 F1500
G1 F1800
G1 X210 Y37.338 E10.84929
G1 X211.391 Y37.73 E10.92048
G1 X212.373 Y38.792 E10.99168
G1 X212.662 Y40 E11.05287
G1 X212.662 Y180 E17.94737
G1 X212.27 Y181.391 E18.01856
G1 X211.208 Y182.373 E18.08976
G1 X210 Y182.662 E18.15095
G1 X10 Y182.662 E28.00023
G1 X8.609 Y182.27 E28.07143
G1 X7.627 Y181.208 E28.14262
G1 X7.338 Y180 E28.20381
G1 X7.338 Y40 E35.09831
G1 X7.73 Y38.609 E35.16951
G1 X8.792 Y37.627 E35.2407
G1 X9.961 Y37.347 E35.29992
G1 E34.59992 F1500
;WIPE_START
G1 F1800
G1 X10.961 Y37.347 E34.31492
;WIPE_END
G1 E34.29992 F1500
G92 E0
G1 X10 Y37.753 F9000
G1 E1 F1500
G1 F1800
G1 X210 Y37.753 E10.84929
G1 X211.267 Y38.144 E10.91457
G1 X212.092 Y39.181 E10.97986
G1 X212.247 Y40 E11.02088
G1 X212.247 Y180 E17.91538
G1 X211.856 Y181.267 E17.98067
G1 X210.819 Y182.092 E18.04596
G1 X210 Y182.247 E18.08698
G1 X10 Y182.247 E27.93627
G1 X8.733 Y181.856 E28.00155
G1 X7.908 Y180.819 E28.06684
G1 X7.753 Y180 E28.10786
M73 P0 R516
G1 X7.753 Y40 E35.00236
G1 X8.144 Y38.733 E35.06765
G1 X9.181 Y37.908 E35.13294
G1 X9.961 Y37.761 E35.17199
G1 E34.47199 F1500
;WIPE_START
G1 F1800
G1 X10.961 Y37.761 E34.18699
;WIPE_END
G1 E34.17199 F1500
G92 E0
G1 X10 Y38.169 F9000
G1 E1 F1500
G1 F1800
G1 X210 Y38.169 E10.84929
G1 X211.129 Y38.558 E10.90807
G1 X211.831 Y40 E10.98708
G1 X211.831 Y180 E17.88158
G1 X211.442 Y181.129 E17.94036
G1 X210 Y181.831 E18.01937
G1 X10 Y181.831 E27.86865
G1 X8.871 Y181.442 E27.92744
G1 X8.169 Y180 E28.00644
G1 X8.169 Y40 E34.90094
G1 X8.558 Y38.871 E34.95973
G1 X9.964 Y38.186 E35.03676
G1 E34.33676 F1500
;WIPE_START
G1 F1800
G1 X10.964 Y38.186 E34.05176
;WIPE_END
G1 E34.03676 F1500
G92 E0
G1 X10 Y38.584 F9000
G1 E1 F1500
G1 F1800
G1 X210 Y38.584 E10.84929
G1 X210.971 Y38.97 E10.90076
G1 X211.416 Y40 E10.95599
G1 X211.416 Y180 E17.85049
G1 X211.03 Y180.971 E17.90196
G1 X210 Y181.416 E17.95719
G1 X10 Y181.416 E27.80648
G1 X9.029 Y181.03 E27.85795
G1 X8.584 Y180 E27.91318
G1 X8.584 Y40 E34.80768
G1 X8.97 Y39.029 E34.85915
G1 X9.963 Y38.6 E34.91241
; printing object front_back.stl id:0 copy 0
G1 E34.21241 F1500
;WIPE_START
G1 F1800
G1 X10.963 Y38.6 E33.92741
;WIPE_END
G1 E33.91241 F1500
G92 E0
G1 X180 Y129.79 F9000
G1 X182.642 Y130.138
G1 X185.105 Y131.158
G1 X187.219 Y132.781
G1 X188.842 Y134.895
G1 X189.862 Y137.358
G1 X190.21 Y140
G1 X190.401 Y142.741
G1 E1 F1500
;TYPE:Inner wall
G1 F1800
G1 X190.395 Y142.785 E1.0022
G1 X189.32 Y145.381 E1.14055
G1 X187.61 Y147.61 E1.27891
G1 X185.381 Y149.32 E1.41727
G1 X182.785 Y150.395 E1.55562
G1 X180 Y150.762 E1.69398
G1 X177.215 Y150.395 E1.83234
G1 X174.619 Y149.32 E1.9707
G1 X172.39 Y147.61 E2.10905
G1 X170.68 Y145.381 E2.24741
G1 X169.605 Y142.785 E2.38577
G1 X169.238 Y140 E2.52412
G1 X169.605 Y137.215 E2.66248
G1 X170.68 Y134.619 E2.80084
G1 X172.39 Y132.39 E2.93919
G1 X174.619 Y130.68 E3.07755
G1 X177.215 Y129.605 E3.21591
G1 X179.863 Y129.256 E3.34744
G1 X180 Y129.238 E3.35427
G1 X182.785 Y129.605 E3.49262
G1 X185.381 Y130.68 E3.63098
G1 X187.61 Y132.39 E3.76934
G1 X189.32 Y134.619 E3.90769
G1 X190.395 Y137.215 E4.04605
G1 X190.762 Y140 E4.18441
G1 X190.406 Y142.702 E4.3186
G1 E3.3186 F1500
G92 E0
G1 X189.991 Y142.677 F9000
G1 E1 F1500
;TYPE:Outer wall
G1 F1800
G1 X188.957 Y145.171 E1.13297
G1 X187.314 Y147.314 E1.26594
G1 X185.171 Y148.957 E1.3989
G1 X182.677 Y149.991 E1.53187
G1 X180 Y150.343 E1.66484
G1 X177.323 Y149.991 E1.79781
G1 X174.829 Y148.957 E1.93077
G1 X172.686 Y147.314 E2.06374
G1 X171.043 Y145.171 E2.19671
M73 P0 R515
G1 X170.009 Y142.677 E2.32968
G1 X169.657 Y140 E2.46264
G1 X170.009 Y137.323 E2.59561
G1 X171.043 Y134.829 E2.72858
G1 X172.686 Y132.686 E2.86155
G1 X174.829 Y131.043 E2.99452
G1 X177.323 Y130.009 E3.12748
G1 X179.917 Y129.668 E3.25632
G1 X180 Y129.657 E3.26045
G1 X182.677 Y130.009 E3.39342
G1 X185.171 Y131.043 E3.52639
G1 X187.314 Y132.686 E3.65935
G1 X188.957 Y134.829 E3.79232
G1 X189.991 Y137.323 E3.92529
G1 X190.343 Y140 E4.05826
G1 X189.996 Y142.637 E4.18925
G1 E3.18925 F1500
G92 E0
G1 X190.277 Y142.674 F9000
G1 X190.267 Y142.751
G1 X189.205 Y145.314
G1 X187.516 Y147.516
G1 X185.314 Y149.205
G1 X182.751 Y150.267
G1 X180 Y150.629
G1 X40.642 Y150.61
G1 X37.805 Y150.53
G1 E1 F1500
;TYPE:Inner wall
G1 F1800
G1 X35.192 Y149.628 E1.13616
G1 X32.863 Y148.056 E1.27452
G1 X31.022 Y145.934 E1.41287
G1 X29.792 Y143.408 E1.55123
G1 X29.257 Y140.65 E1.68959
G1 X29.455 Y137.847 E1.82794
G1 X30.372 Y135.192 E1.9663
G1 X31.944 Y132.863 E2.10466
G1 X34.066 Y131.022 E2.24301
G1 X36.592 Y129.792 E2.38137
G1 X39.214 Y129.284 E2.5129
G1 X39.35 Y129.258 E2.51973
G1 X42.153 Y129.455 E2.65809
G1 X44.808 Y130.372 E2.79644
G1 X47.137 Y131.944 E2.9348
G1 X48.978 Y134.066 E3.07316
G1 X49.212 Y134.547 E3.09948
G1 X50.208 Y136.592 E3.21151
G1 X50.743 Y139.35 E3.34987
G1 X50.545 Y142.153 E3.48823
G1 X50.36 Y142.689 E3.51616
G1 X49.628 Y144.808 E3.62658
G1 X48.056 Y147.137 E3.76494
G1 X45.934 Y148.978 E3.9033
G1 X43.533 Y150.148 E4.03483
G1 X43.408 Y150.208 E4.04166
G1 X40.65 Y150.743 E4.18001
G1 X37.847 Y150.545 E4.31837
G1 X37.843 Y150.543 E4.3186
G1 E3.3186 F1500
G92 E0
G1 X37.931 Y150.134 F9000
G1 E1 F1500
;TYPE:Outer wall
G1 F1800
G1 X35.379 Y149.253 E1.13297
G1 X33.141 Y147.742 E1.26594
G1 X31.371 Y145.703 E1.3989
G1 X30.189 Y143.275 E1.53187
G1 X29.676 Y140.625 E1.66484
G1 X29.866 Y137.931 E1.79781
G1 X30.747 Y135.379 E1.93077
G1 X32.258 Y133.141 E2.06374
G1 X34.297 Y131.371 E2.19671
G1 X36.725 Y130.189 E2.32968
G1 X39.293 Y129.692 E2.45851
G1 X39.375 Y129.676 E2.46264
G1 X42.069 Y129.866 E2.59561
G1 X44.621 Y130.747 E2.72858
G1 X46.859 Y132.258 E2.86155
G1 X48.629 Y134.297 E2.99452
G1 X48.839 Y134.729 E3.01815
G1 X49.811 Y136.725 E3.12748
G1 X50.324 Y139.375 E3.26045
G1 X50.134 Y142.069 E3.39342
G1 X49.967 Y142.553 E3.41866
G1 X49.253 Y144.621 E3.52639
G1 X47.742 Y146.859 E3.65935
G1 X45.703 Y148.629 E3.79232
G1 X43.351 Y149.774 E3.92116
G1 X43.275 Y149.811 E3.92529
G1 X40.625 Y150.324 E4.05826
G1 X37.971 Y150.137 E4.18925
G1 E3.18925 F1500
G92 E0
G1 X10.756 Y179.244 F9000
G1 E1 F1500
;TYPE:Inner wall
G1 F1800
G1 X10.756 Y40.756 E7.82008
G1 X209.244 Y40.756 E17.59494
G1 X209.244 Y179.244 E24.41502
G1 X10.796 Y179.244 E34.18791
G1 E33.18791 F1500
G92 E0
G1 X10.34 Y179.66 F9000
G1 E1 F1500
;TYPE:Outer wall
G1 F1800
G1 X10.34 Y40.34 E7.86101
G1 X209.66 Y40.34 E17.67681
G1 X209.66 Y179.66 E24.53782
G1 X10.38 Y179.66 E34.35165
G1 E33.35165 F1500
G92 E0
G1 X11.742 Y179.099 F9000
G1 E1 F1500
;TYPE:Bottom surface
;WIDTH:0.480336
G1 F1800
M106 S0
G1 X11.088 Y178.445 E1.04558
G1 X11.088 Y177.857 E1.07458
G1 X12.143 Y178.912 E1.14813
G1 X12.732 Y178.912 E1.17712
G1 X11.088 Y177.268 E1.29167
G1 X11.088 Y176.68 E1.32066
G1 X13.32 Y178.912 E1.47622
G1 X13.908 Y178.912 E1.50521
G1 X11.088 Y176.092 E1.70177
G1 X11.088 Y175.504 E1.73076
G1 X14.496 Y178.912 E1.96832
G1 X15.085 Y178.912 E1.99731
G1 X11.088 Y174.915 E2.27587
G1 X11.088 Y174.327 E2.30486
G1 X15.673 Y178.912 E2.62442
G1 X16.261 Y178.912 E2.65341
G1 X11.088 Y173.739 E3.01398
G1 X11.088 Y173.151 E3.04297
G1 X16.849 Y178.912 E3.44453
G1 X17.438 Y178.912 E3.47352
G1 X11.088 Y172.562 E3.91609
G1 X11.088 Y171.974 E3.94508
G1 X18.026 Y178.912 E4.42865
G1 X18.614 Y178.912 E4.45764
G1 X11.088 Y171.386 E4.98221
G1 X11.088 Y170.798 E5.0112
G1 X19.202 Y178.912 E5.57677
G1 X19.791 Y178.912 E5.60577
G1 X11.088 Y170.209 E6.21234
G1 X11.088 Y169.621 E6.24133
G1 X20.379 Y178.912 E6.8889
G1 X20.967 Y178.912 E6.9179
G1 X11.088 Y169.033 E7.60647
G1 X11.088 Y168.445 E7.63547
G1 X21.555 Y178.912 E8.36504
G1 X22.144 Y178.912 E8.39404
G1 X11.088 Y167.856 E9.16461
G1 X11.088 Y167.268 E9.19361
G1 X22.732 Y178.912 E10.00519
G1 X23.32 Y178.912 E10.03418
G1 X11.088 Y166.68 E10.88676
G1 X11.088 Y166.092 E10.91575
G1 X23.908 Y178.912 E11.80934
G1 X24.497 Y178.912 E11.83833
M73 P0 R514
G1 X11.088 Y165.503 E12.77292
G1 X11.088 Y164.915 E12.80191
G1 X25.085 Y178.912 E13.7775
G1 X25.673 Y178.912 E13.80649
G1 X11.088 Y164.327 E14.82308
G1 X11.088 Y163.739 E14.85207
G1 X26.261 Y178.912 E15.90966
G1 X26.85 Y178.912 E15.93865
G1 X11.088 Y163.15 E17.03725
G1 X11.088 Y162.562 E17.06624
G1 X27.438 Y178.912 E18.20583
G1 X28.026 Y178.912 E18.23482
G1 X11.088 Y161.974 E19.41542
G1 X11.088 Y161.386 E19.44441
G1 X28.614 Y178.912 E20.66601
G1 X29.203 Y178.912 E20.695
G1 X11.088 Y160.797 E21.9576
G1 X11.088 Y160.209 E21.98659
G1 X29.791 Y178.912 E23.2902
G1 X30.379 Y178.912 E23.31919
G1 X11.088 Y159.621 E24.66379
G1 X11.088 Y159.033 E24.69278
G1 X30.967 Y178.912 E26.07839
G1 X31.556 Y178.912 E26.10738
G1 X11.088 Y158.444 E27.53398
G1 X11.088 Y157.856 E27.56298
G1 X32.144 Y178.912 E29.03058
G1 X32.732 Y178.912 E29.05958
G1 X11.088 Y157.268 E30.56819
G1 X11.088 Y156.68 E30.59718
G1 X33.32 Y178.912 E32.14679
G1 X33.909 Y178.912 E32.17578
G1 X11.088 Y156.091 E33.76639
G1 X11.088 Y155.503 E33.79539
G1 X34.497 Y178.912 E35.427
G1 X35.085 Y178.912 E35.45599
G1 X11.088 Y154.915 E37.12861
G1 X11.088 Y154.327 E37.1576
G1 X35.673 Y178.912 E38.87122
G1 X36.262 Y178.912 E38.90021
G1 X11.088 Y153.738 E40.65483
G1 X11.088 Y153.15 E40.68382
G1 X36.85 Y178.912 E42.47944
G1 X37.438 Y178.912 E42.50844
G1 X11.088 Y152.562 E44.34506
G1 X11.088 Y151.974 E44.37405
G1 X38.026 Y178.912 E46.25168
G1 X38.615 Y178.912 E46.28067
G1 X11.088 Y151.385 E48.19929
G1 X11.088 Y150.797 E48.22829
G1 X39.203 Y178.912 E50.18791
G1 X39.791 Y178.912 E50.21691
G1 X11.088 Y150.209 E52.21754
G1 X11.088 Y149.621 E52.24653
G1 X40.379 Y178.912 E54.28816
G1 X40.968 Y178.912 E54.31715
G1 X11.088 Y149.032 E56.39978
G1 X11.088 Y148.444 E56.42878
G1 X41.556 Y178.912 E58.55241
G1 X42.144 Y178.912 E58.5814
G1 X11.088 Y147.856 E60.74604
G1 X11.088 Y147.268 E60.77503
G1 X42.732 Y178.912 E62.98067
G1 X43.321 Y178.912 E63.00966
G1 X11.088 Y146.679 E65.2563
G1 X11.088 Y146.091 E65.28529
G1 X43.909 Y178.912 E67.57294
G1 X44.497 Y178.912 E67.60193
G1 X11.088 Y145.503 E69.93057
G1 X11.088 Y144.915 E69.95956
G1 X45.085 Y178.912 E72.32921
G1 X45.674 Y178.912 E72.3582
G1 X11.088 Y144.326 E74.76885
G1 X11.088 Y143.738 E74.79784
G1 X46.262 Y178.912 E77.24949
G1 X46.85 Y178.912 E77.27848
G1 X11.088 Y143.15 E79.77113
G1 X11.088 Y142.562 E79.80012
G1 X47.438 Y178.912 E82.33377
G1 X48.027 Y178.912 E82.36276
G1 X11.088 Y141.973 E84.93742
G1 X11.088 Y141.385 E84.96641
G1 X48.615 Y178.912 E87.58206
G1 X49.203 Y178.912 E87.61106
G1 X11.088 Y140.797 E90.26771
G1 X11.088 Y140.209 E90.2967
G1 X49.791 Y178.912 E92.99436
G1 X50.38 Y178.912 E93.02335
G1 X11.088 Y139.62 E95.76201
G1 X11.088 Y139.032 E95.79101
G1 X50.968 Y178.912 E98.57067
G1 X51.556 Y178.912 E98.59966
G1 X11.088 Y138.444 E101.42032
G1 X11.088 Y137.856 E101.44932
G1 X52.144 Y178.912 E104.31098
G1 X52.733 Y178.912 E104.33997
M73 P0 R513
G1 X11.088 Y137.267 E107.24264
G1 X11.088 Y136.679 E107.27163
G1 X53.321 Y178.912 E110.2153
G1 X53.909 Y178.912 E110.24429
G1 X11.088 Y136.091 E113.22896
G1 X11.088 Y135.503 E113.25795
G1 X54.497 Y178.912 E116.28362
G1 X55.086 Y178.912 E116.31262
G1 X11.088 Y134.914 E119.37929
G1 X11.088 Y134.326 E119.40828
G1 X55.674 Y178.912 E122.51596
G1 X56.262 Y178.912 E122.54495
G1 X11.088 Y133.738 E125.69362
G1 X11.088 Y133.15 E125.72262
G1 X56.85 Y178.912 E128.9123
G1 X57.439 Y178.912 E128.94129
G1 X11.088 Y132.561 E132.17197
G1 X11.088 Y131.973 E132.20096
G1 X58.027 Y178.912 E135.47264
G1 X58.615 Y178.912 E135.50163
G1 X11.088 Y131.385 E138.81432
G1 X11.088 Y130.797 E138.84331
G1 X59.203 Y178.912 E142.19699
G1 X59.792 Y178.912 E142.22599
G1 X11.088 Y130.208 E145.62067
G1 X11.088 Y129.62 E145.64966
G1 X60.38 Y178.912 E149.08535
G1 X60.968 Y178.912 E149.11435
G1 X11.088 Y129.032 E152.59103
G1 X11.088 Y128.444 E152.62003
G1 X61.556 Y178.912 E156.13772
G1 X62.145 Y178.912 E156.16671
G1 X11.088 Y127.855 E159.7254
G1 X11.088 Y127.267 E159.7544
G1 X62.92 Y179.099 E163.36713
G1 E162.36713 F1500
G92 E0
G1 X94.097 Y179.099 F9000
G1 E1 F1500
G1 F1800
G1 X49.618 Y134.62 E4.10025
G1 X50.176 Y135.766 E4.1631
G1 X93.322 Y178.912 E7.17041
G1 X92.733 Y178.912 E7.1994
G1 X50.579 Y136.757 E10.13762
G1 X50.72 Y137.487 E10.17424
G1 X92.145 Y178.912 E13.06161
G1 X91.557 Y178.912 E13.0906
G1 X50.862 Y138.217 E15.92712
G1 X51.003 Y138.946 E15.96375
G1 X90.969 Y178.912 E18.74941
G1 X90.38 Y178.912 E18.7784
G1 X51.059 Y139.59 E21.51917
G1 X51.02 Y140.14 E21.54632
G1 X89.792 Y178.912 E24.24878
G1 X89.204 Y178.912 E24.27777
G1 X50.981 Y140.689 E26.94194
G1 X50.942 Y141.239 E26.96909
G1 X88.616 Y178.912 E29.59496
G1 X88.027 Y178.912 E29.62395
M73 P1 R512
G1 X50.904 Y141.788 E32.21152
G1 X50.873 Y142.22 E32.23285
G1 X50.841 Y142.314 E32.23774
G1 X87.439 Y178.912 E34.78869
G1 X86.851 Y178.912 E34.81768
G1 X50.69 Y142.751 E37.33815
G1 X50.539 Y143.188 E37.36095
G1 X86.263 Y178.912 E39.85093
G1 X85.674 Y178.912 E39.87993
G1 X50.388 Y143.626 E42.33943
G1 X50.237 Y144.063 E42.36223
G1 X85.086 Y178.912 E44.79125
G1 X84.498 Y178.912 E44.82024
G1 X50.086 Y144.5 E47.21878
G1 X49.935 Y144.938 E47.24158
G1 X83.91 Y178.912 E49.60963
G1 X83.321 Y178.912 E49.63862
G1 X49.702 Y145.293 E51.98192
G1 X49.465 Y145.644 E52.0028
G1 X82.733 Y178.912 E54.32162
G1 X82.145 Y178.912 E54.35062
G1 X49.228 Y145.995 E56.64497
G1 X48.991 Y146.346 E56.66585
G1 X81.557 Y178.912 E58.93573
G1 X80.968 Y178.912 E58.96473
G1 X48.754 Y146.697 E61.21014
G1 X48.517 Y147.048 E61.23102
G1 X80.38 Y178.912 E63.45195
G1 X79.792 Y178.912 E63.48095
G1 X48.27 Y147.39 E65.67804
G1 X47.956 Y147.664 E65.69859
G1 X79.204 Y178.912 E67.87662
G1 X78.615 Y178.912 E67.90562
G1 X47.641 Y147.937 E70.0646
G1 X47.326 Y148.21 E70.08515
G1 X78.027 Y178.912 E72.22508
G1 X77.439 Y178.912 E72.25407
G1 X47.011 Y148.484 E74.37494
G1 X46.696 Y148.757 E74.3955
G1 X76.851 Y178.912 E76.49732
G1 X76.262 Y178.912 E76.52631
G1 X46.381 Y149.031 E78.60908
G1 X46.119 Y149.258 E78.62619
G1 X46.053 Y149.29 E78.62982
G1 X75.674 Y178.912 E80.69448
G1 X75.086 Y178.912 E80.72347
G1 X45.657 Y149.483 E82.7747
G1 X45.261 Y149.676 E82.79638
G1 X74.498 Y178.912 E84.83419
G1 X73.909 Y178.912 E84.86318
G1 X44.866 Y149.868 E86.88756
G1 X44.47 Y150.061 E86.90924
G1 X73.321 Y178.912 E88.92019
G1 X72.733 Y178.912 E88.94919
G1 X44.075 Y150.254 E90.94671
G1 X43.679 Y150.446 E90.9684
G1 X72.145 Y178.912 E92.95249
G1 X71.556 Y178.912 E92.98149
G1 X43.227 Y150.582 E94.95611
G1 X42.734 Y150.678 E94.98085
G1 X70.968 Y178.912 E96.94882
G1 X70.38 Y178.912 E96.97781
G1 X42.241 Y150.773 E98.93913
G1 X41.748 Y150.868 E98.96387
G1 X69.792 Y178.912 E100.91853
G1 X69.203 Y178.912 E100.94753
